packages/merlin-www-assets/imports/brides/icons/cta-close.svg

<svg xmlns="http://www.w3.org/2000/svg" viewBox="0 0 20 20"><title>close</title>
  <path d="M10,9.29289322 L19.1464466,0.146446609 L19.8535534,0.853553391 L10.7071068,10 L19.8535534,19.1464466 L19.1464466,19.8535534 L10,10.7071068 L0.853553391,19.8535534 L0.146446609,19.1464466 L9.29289322,10 L0.146446609,0.853553391 L0.853553391,0.146446609 L10,9.29289322 Z"/>
</svg>

<svg viewBox="0 0 20 20" xmlns="http://www.w3.org/2000/svg"><path d="m10 9.29289322 9.1464466-9.14644661.7071068.70710678-9.1464466 9.14644661 9.1464466 9.1464466-.7071068.7071068-9.1464466-9.1464466-9.14644661 9.1464466-.70710678-.7071068 9.14644661-9.1464466-9.14644661-9.14644661.70710678-.70710678z"/></svg>
